src/components/Icon/assets/film.svg

<svg xmlns="http://www.w3.org/2000/svg" viewBox="0 0 18 18"><path d="M0 0h18v18H0V0zm1.5 1.5v15H3v-.75h1.5v.75h9v-.75H15v.75h1.5v-15H15v.75h-1.5V1.5h-9v.75H3V1.5zM3 3.75h1.5v1.5H3zm0 3h1.5v1.5H3zm0 3h1.5v1.5H3zm0 3h1.5v1.5H3zm10.5-9H15v1.5h-1.5zm0 3H15v1.5h-1.5zm0 3H15v1.5h-1.5zm0 3H15v1.5h-1.5z"/></svg>

<svg xmlns="http://www.w3.org/2000/svg" viewBox="0 0 18 18"><defs><style>.a{fill:#333740;}</style></defs><title>MOS icons NEW</title><path class="a" d="M0,0H18V18H0V0ZM1.5,1.5v15H3v-.75H4.5v.75h9v-.75H15v.75h1.5V1.5H15v.75H13.5V1.5h-9v.75H3V1.5ZM3,3.75H4.5v1.5H3Zm0,3H4.5v1.5H3Zm0,3H4.5v1.5H3Zm0,3H4.5v1.5H3Zm10.5-9H15v1.5H13.5Zm0,3H15v1.5H13.5Zm0,3H15v1.5H13.5Zm0,3H15v1.5H13.5Z"/></svg>
